X:304
M:C|
L:1/8
K:C
g|ecgc eccg|ecge f2fa|ecgc acgc|d/d/d _bd f2 fa|ecgc eccg|ecge fagf|
ecdB cAGE|D/D/D _BD F2F||

